src/lib/(features)/auth/greetings/translations/uk.svg

<svg width="537" height="140" viewBox="0 0 537 140" fill="none" xmlns="http://www.w3.org/2000/svg">
	<g id="Result">
		<path
			id="1"
			d="M62.9999 33.5C55.9999 57 45.4999 104.5 19.9999 104.5C7.99995 104.5 4 96.5 6.49993 86"
			stroke="black"
			stroke-width="11"
			stroke-linecap="round"
			stroke-linejoin="round"
		/>
		<path
			id="2"
			d="M24.5 54.9998C22.3333 47.8331 22.3 30.6999 37.5 21.4999C61.4565 7 89.5 26.4997 123.5 19.9998"
			stroke="black"
			stroke-width="11"
			stroke-linecap="round"
			stroke-linejoin="round"
		/>
		<path
			id="3"
			d="M92.5 36.0002C81.5 56.5002 69 104 92.5 104C111.5 104 143 41.5002 140.5 56.5002C138.5 68.5002 124 112 115.5 134"
			stroke="black"
			stroke-width="11"
			stroke-linecap="round"
			stroke-linejoin="round"
		/>
		<path
			id="4"
			d="M115.5 134C119.885 121.699 126.904 100.744 136 86.5002C147.368 68.6977 162.394 58.811 169 62.0002C183.5 69.0002 146.5 96.0002 168 104.5C184.441 111 224.216 43.2579 218.5 58.5002C212.5 74.5002 206 95.5002 214.5 102C230.5 114.236 263.5 54.5002 256.5 54.5002C252.5 54.5002 241.217 97.1237 255 101C271 105.5 286.5 81 295.5 68C307.5 62.5 322.9 44.1002 328.5 36.5002C335.5 27.0002 341.5 8.90938 333.5 6.00028C324 2.54572 313.589 20.543 308 32.0001C298 52.5 283.5 106.5 307 107.5C325 108.266 332.5 67.2003 326.5 69C321.5 70.4998 319.606 95.6891 335 97.5C354 99.7351 379.005 49.4863 376 57.5C373 65.5 358 106.5 378 105.5C400.5 104.375 423.5 51 432.5 54.5C443.324 58.7093 426.047 90.5793 422.016 105.439"
			stroke="black"
			stroke-width="11"
			stroke-linecap="round"
			stroke-linejoin="bevel"
		/>
		<path
			id="5"
			d="M422 105.5C430.302 83 449.17 57.5625 460.5 60.4999C473.82 63.9534 463.289 90.4479 459.163 103"
			stroke="black"
			stroke-width="11"
			stroke-linecap="round"
			stroke-linejoin="bevel"
		/>
		<path
			id="6"
			d="M459 103.5C466 86.0003 481.5 52.6336 496 56.5001C510.5 60.3665 488 97.0001 502 102C511.604 105.43 525.833 88.1669 531.5 80.0003"
			stroke="black"
			stroke-width="11"
			stroke-linecap="round"
			stroke-linejoin="bevel"
		/>
		<path
			id="7"
			d="M384.5 34.5V35"
			stroke="black"
			stroke-width="11"
			stroke-linecap="round"
			stroke-linejoin="round"
		/>
	</g>
</svg>

<svg xmlns="http://www.w3.org/2000/svg" width="537" height="140" fill="none">
	<g id="Result" stroke="#000" stroke-linecap="round" stroke-linejoin="round" stroke-width="11">
		<path id="1" d="M63 33.5c-7 23.5-17.5 71-43 71-12 0-16-8-13.5-18.5" />
		<path id="2" d="M24.5 55c-2.167-7.167-2.2-24.3 13-33.5 23.956-14.5 52 5 86-1.5" />
		<path
			id="3"
			d="M92.5 36c-11 20.5-23.5 68 0 68 19 0 50.5-62.5 48-47.5-2 12-16.5 55.5-25 77.5 4.433-12.241 9.28-33.061 18.5-47.5 11.368-17.802 28.394-27.689 35-24.5 14.5 7-22.5 34-1 42.5 16.441 6.5 56.216-61.242 50.5-46-6 16-12.5 37-4 43.5 16 12.236 49-47.5 42-47.5-4 0-15.283 42.624-1.5 46.5 16 4.5 31.5-20 40.5-33 12-5.5 27.4-23.9 33-31.5 7-9.5 13-27.59 5-30.5-9.5-3.454-19.911 14.543-25.5 26-10 20.5-24.5 74.5-1 75.5 18 .766 25.5-40.3 19.5-38.5-5 1.5-6.894 26.69 8.5 28.5 19 2.235 44.005-48.014 41-40-3 8-18 49 2 48 22.5-1.125 45.5-54.5 54.5-51 10.839 4.215-6.5 36.167-10.5 51 8.302-22.5 27.17-47.937 38.5-45 13.5 3.5 2.5 30.667-1.5 43 7-17.5 22.5-50.867 37-47 14.5 3.867-8 40.5 6 45.5 9.604 3.43 23.833-13.833 29.5-22"
		/>
		<path id="4" d="m384.5 34.5-.5 1" />
	</g>
</svg>
